Icons/com_videon_android_mediaplayer.svg

<svg viewBox="0 0 48 48" xmlns:xlink="http://www.w3.org/1999/xlink">
 <defs>
  <linearGradient id="0">
   <stop stop-opacity="0"/>
   <stop offset="1"/>
  </linearGradient>
  <linearGradient xlink:href="#0" id="1" gradientUnits="userSpaceOnUse" gradientTransform="translate(4e-7,-48)" y1="47" x2="0" y2="1"/>
  <clipPath id="2">
   <g transform="translate(0,-1004.3622)">
    <rect rx="4" y="1005.36" x="1" height="46" width="46" fill="#1890d0"/>
   </g>
  </clipPath>
  <clipPath id="3">
   <g transform="translate(0,-1004.3622)">
    <rect rx="4" y="1005.36" x="1" height="46" width="46" fill="#1890d0"/>
   </g>
  </clipPath>
 </defs>
 <g>
  <g transform="translate(0,-1004.3622)">
   <path d="m 5,1006.3622 c -2.216,0 -4,1.784 -4,4 l 0,37.25 c 0,2.216 1.784,4 4,4 l 38,0 c 2.216,0 4,-1.784 4,-4 l 0,-37.25 c 0,-2.216 -1.784,-4 -4,-4 l -38,0 z m -4,41.5 0,0.5 c 0,2.216 1.784,4 4,4 l 38,0 c 2.216,0 4,-1.784 4,-4 l 0,-0.5 c 0,2.216 -1.784,4 -4,4 l -38,0 c -2.216,0 -4,-1.784 -4,-4 z" opacity="0.02"/>
   <path d="m 1,1047.6122 0,0.25 c 0,2.216 1.784,4 4,4 l 38,0 c 2.216,0 4,-1.784 4,-4 l 0,-0.25 c 0,2.216 -1.784,4 -4,4 l -38,0 c -2.216,0 -4,-1.784 -4,-4 z" opacity="0.05"/>
   <rect width="46" height="46" x="1" y="1005.61" rx="4" opacity="0.1"/>
  </g>
 </g>
 <g>
  <g transform="translate(0,-1004.3622)">
   <rect rx="4" y="1005.36" x="1" height="46" width="46" fill="#5d5e61"/>
  </g>
 </g>
 <g>
  <rect transform="scale(1,-1)" width="46" height="46" x="1" y="-46.998" rx="4" opacity="0.1" fill="url(#1)"/>
 </g>
 <g>
  <g clip-path="url(#2)">
   <g opacity="0.1">
    <g>
     <path d="M 20 12.6875 C 15.273438 14.34375 12 18.851562 12 24 C 12 30.503906 17.222656 36.003906 24 36.003906 C 30.777344 36.003906 36 30.503906 36 24 C 36 19.945312 33.984375 16.277344 30.8125 14.09375 L 27.875 15.71875 C 30.75 17.210938 32.8125 20.296875 32.8125 24 C 32.8125 29.230469 28.714844 33.25 24 33.25 C 19.285156 33.25 15.1875 29.230469 15.1875 24 C 15.1875 20.351562 17.191406 17.296875 20 15.78125 Z M 20 12.6875 "/>
     <path d="M 34.5 21 C 35.328125 21 36 21.894531 36 23 L 36 36 C 36 37.105469 35.328125 38 34.5 38 C 33.671875 38 33 37.105469 33 36 L 33 23 C 33 21.894531 33.671875 21 34.5 21 Z M 34.5 21 "/>
     <path d="M 22 10 L 28 14 L 22 18 Z M 22 10 "/>
    </g>
   </g>
  </g>
 </g>
 <g>
  <g clip-path="url(#3)">
   <g transform="translate(0,-1)">
    <g>
     <path d="M 20 12.6875 C 15.273438 14.34375 12 18.851562 12 24 C 12 30.503906 17.222656 36.003906 24 36.003906 C 30.777344 36.003906 36 30.503906 36 24 C 36 19.945312 33.984375 16.277344 30.8125 14.09375 L 27.875 15.71875 C 30.75 17.210938 32.8125 20.296875 32.8125 24 C 32.8125 29.230469 28.714844 33.25 24 33.25 C 19.285156 33.25 15.1875 29.230469 15.1875 24 C 15.1875 20.351562 17.191406 17.296875 20 15.78125 Z M 20 12.6875 " fill="#f9f9f9"/>
     <path d="M 34.5 21 C 35.328125 21 36 21.894531 36 23 L 36 36 C 36 37.105469 35.328125 38 34.5 38 C 33.671875 38 33 37.105469 33 36 L 33 23 C 33 21.894531 33.671875 21 34.5 21 Z M 34.5 21 " fill="#f9f9f9"/>
     <path d="M 22 10 L 28 14 L 22 18 Z M 22 10 " fill="#f5c1ab"/>
    </g>
   </g>
  </g>
 </g>
 <g>
  <g transform="translate(0,-1004.3622)">
   <path d="m 1,1043.3622 0,4 c 0,2.216 1.784,4 4,4 l 38,0 c 2.216,0 4,-1.784 4,-4 l 0,-4 c 0,2.216 -1.784,4 -4,4 l -38,0 c -2.216,0 -4,-1.784 -4,-4 z" opacity="0.1"/>
  </g>
 </g>
</svg>

<svg viewBox="0 0 48 48"><defs><linearGradient id="linearGradient3764" x1="1" x2="47" gradientUnits="userSpaceOnUse" gradientTransform="translate(-48.000001,0.00221467)"><stop stop-color="#535457" stop-opacity="1"/><stop offset="1" stop-color="#5d5e61" stop-opacity="1"/></linearGradient><clipPath id="clipPath-776089933"><g transform="translate(0,-1004.3622)"><rect rx="4" y="1005.36" x="1" height="46" width="46" fill="#1890d0"/></g></clipPath><clipPath id="clipPath-789286915"><g transform="translate(0,-1004.3622)"><rect rx="4" y="1005.36" x="1" height="46" width="46" fill="#1890d0"/></g></clipPath></defs><g><path d="m 1 43 l 0 0.25 c 0 2.216 1.784 4 4 4 l 38 0 c 2.216 0 4 -1.784 4 -4 l 0 -0.25 c 0 2.216 -1.784 4 -4 4 l -38 0 c -2.216 0 -4 -1.784 -4 -4 z m 0 0.5 l 0 0.5 c 0 2.216 1.784 4 4 4 l 38 0 c 2.216 0 4 -1.784 4 -4 l 0 -0.5 c 0 2.216 -1.784 4 -4 4 l -38 0 c -2.216 0 -4 -1.784 -4 -4 z" opacity="0.02"/><path d="m 1 43.25 l 0 0.25 c 0 2.216 1.784 4 4 4 l 38 0 c 2.216 0 4 -1.784 4 -4 l 0 -0.25 c 0 2.216 -1.784 4 -4 4 l -38 0 c -2.216 0 -4 -1.784 -4 -4 z" opacity="0.05"/><path d="m 1 43 l 0 0.25 c 0 2.216 1.784 4 4 4 l 38 0 c 2.216 0 4 -1.784 4 -4 l 0 -0.25 c 0 2.216 -1.784 4 -4 4 l -38 0 c -2.216 0 -4 -1.784 -4 -4 z" opacity="0.1"/></g><g><rect width="46" height="46" x="-47" y="1" rx="4" transform="matrix(0,-1,1,0,0,0)" fill="url(#linearGradient3764)" fill-opacity="1"/></g><g><g clip-path="url(#clipPath-776089933)"><g opacity="0.1"><!-- color: #5d5e61 --><g><path d="m 20 12.688 c -4.727 1.656 -8 6.164 -8 11.313 c 0 6.504 5.223 12 12 12 c 6.777 0 12 -5.5 12 -12 c 0 -4.055 -2.02 -7.723 -5.188 -9.906 l -2.938 1.625 c 2.875 1.492 4.938 4.578 4.938 8.281 c 0 5.23 -4.098 9.25 -8.813 9.25 c -4.715 0 -8.813 -4.02 -8.813 -9.25 c 0 -3.648 2 -6.703 4.813 -8.219 m 0 -3.094" fill="#000"/><path d="m 34.5 21 c 0.828 0 1.5 0.895 1.5 2 l 0 13 c 0 1.105 -0.672 2 -1.5 2 c -0.828 0 -1.5 -0.895 -1.5 -2 l 0 -13 c 0 -1.105 0.672 -2 1.5 -2 m 0 0" fill="#000"/><path d="m 22 10 l 6 4 l -6 4 m 0 -8" fill="#000"/></g></g></g></g><g><g clip-path="url(#clipPath-789286915)"><g transform="translate(0,-1)"><!-- color: #5d5e61 --><g><path d="m 20 12.688 c -4.727 1.656 -8 6.164 -8 11.313 c 0 6.504 5.223 12 12 12 c 6.777 0 12 -5.5 12 -12 c 0 -4.055 -2.02 -7.723 -5.188 -9.906 l -2.938 1.625 c 2.875 1.492 4.938 4.578 4.938 8.281 c 0 5.23 -4.098 9.25 -8.813 9.25 c -4.715 0 -8.813 -4.02 -8.813 -9.25 c 0 -3.648 2 -6.703 4.813 -8.219 m 0 -3.094" fill="#f9f9f9"/><path d="m 34.5 21 c 0.828 0 1.5 0.895 1.5 2 l 0 13 c 0 1.105 -0.672 2 -1.5 2 c -0.828 0 -1.5 -0.895 -1.5 -2 l 0 -13 c 0 -1.105 0.672 -2 1.5 -2 m 0 0" fill="#f9f9f9"/><path d="m 22 10 l 6 4 l -6 4 m 0 -8" fill="#f5c1ab"/></g></g></g></g><g><g transform="translate(0,-1004.3622)"><path d="m 1 1043.36 0 4 c 0 2.216 1.784 4 4 4 l 38 0 c 2.216 0 4 -1.784 4 -4 l 0 -4 c 0 2.216 -1.784 4 -4 4 l -38 0 c -2.216 0 -4 -1.784 -4 -4 z" opacity="0.1"/></g></g></svg>
